X:1
T:5.2 Standard rolled chord
M:4/4
L:1/1
K:C clef=C1
[C,c]2/3 [E,e]/3 | [E,e]/3 [G,g]2/3 | [F,f]2/3 [A,a]/3 | [A,a]/3 [cc']2/3 | [G,,G]2/3 [B,,B]/3 | [B,,B]/3 [Dd]2/3 | [C,c]2/3 [E,e]/3 | [E,e]/3 [G,g]2/3 |]
